X:1
T:Solace
T:(Excerpt from A Mexican Serenade) From The Sting
T:Scott Joplin
T:Arr. GEAK
%%score { ( 1 2 5 ) | ( 3 4 ) }
L:1/8
Q:1/8=80
M:2/4
K:F
V:1 treble nm="Piano" snm="Pno."
V:2 treble 
V:5 treble 
V:3 bass 
V:4 bass 
V:1
|:!mp! F2- F/A/[df] | [df]>B- B/B/[df] | [df]>[ce]- [ce]/^d/e | [Ae]>A- A!fermata!E | %4
 F2- F/A/c/d/ |!mf! e2- e/_e/=e | e2- e/_e/=e | e2- e!mp!!fermata!E | F2- F/A/[df] | %9
 [df]>B- B/B/[df] | [df]>[ce]- [ce]/^d/e | [Ae]>A- AA | [FB]>[FB]- (B/c/)B | %13
 [FA]/[FA][F^G]/- [FG][FGd] | [FA]>[DE]- [DE][CEA] |1 [A,F]3 !fermata![B,E] :|2 %16
 [A,F]2-!<(! [A,F](!fermata!d/f/)!<)! |: [fb]/[eb]/[^db]/[eb]/- [eb]/[db][eb]/ | %18
 [fb]/[eb]/[^db]/[eb]/- [eb]/[db][eb]/ | [ea]/[da]/[^ca]/[da]/- [da]2- | [da]2- [da]/[Ad][Ac]/ | %21
 [Ac]/[GB]/[^FA]/[GB]/- [GB]/[FA][GB]/ | [Ac]/[GB]/[^FA]/[GB]/- [GB]/[FA][GB]/ | %23
 [GB]/[FA]/[GB]/[Ac]/- [Ac]2- | [Ac]2- [Ac]!fermata!d/f/ | [fb]/[eb]/[^db]/[eb]/- [eb]/[db][eb]/ | %26
 [fb]/[eb]/[^db]/[eb]/- [eb]/[db][eb]/ | [ea]/[da]/[^ca]/[da]/- [da]2- | [da]2- a/a/f/_e/ | %29
 d/f/d/f/- f/fd/ | d/f/d/c/- c/fg/ | [ca]/[=B^g]/[ca]/[Ac]/- [Ac]/AG/ |1 F3 !fermata!d/f/ :|2 %33
 F2 !^![FAcf] z |] %34
V:2
|: A,/B,/=B,/C/- CA | G>G- GG | G>G- GG | F>F- FB, | A,/B,/_C/=C/- CA | z/ (c/=B/A/-) A[EAc] | %6
 E3 E | [EA-]2 AB, | A,/B,/=B,/C/- CA | G>G- GG | G>G- GG | F>F- FF | x2 FF | x4 | d/cB/- B z |1 %15
 x4 :|2 x4 |: x4 | x4 | x4 | x4 | x4 | x4 | x4 | x4 | x4 | x4 | x4 | z2 d<c | B>^G- G<G | %30
 A>A- A<B | z2 A<E |1 x4 :|2 x4 |] %34
V:3
|: F,/G,/^G,/A,/- A,/F,/D,/C,/ | B,,/B,/C/D/- DB,, | C,/G,/A,/B,/- B,C,, | F,,/^G,/A,/C/- CC, | %4
 (F,/G,/^G,/A,/-) (A,F,) | E,2- E,/A,/E,/C,/ | E,,2- E,,E, | A,E,/A,,/- A,,C, | %8
 (F,/G,/^G,/A,/-) (A,/F,/D,/C,/) | (B,,/B,/)C/D/- DB,, | C,/G,/A,/B,/- B,C,, | %11
 F,,/^G,/A,/C/- C_E, | (D,/F,/B,/D/-) (D_D) | C/CB,/- B,B, | C>C,- C,2 |1 %15
 (F,>C, F,,)!fermata!C, :|2 (F,>C, F,,)!fermata!_A,, |: G,,3 C,, | G,,3 C,, | F,,3 C,, | %20
 F,,3 ^F,, | G,,3 C,, | G,,3 C,, | F,,3 C,, | F,,3 !fermata!_A,, | G,,3 C,, | G,,3 C,, | F,,3 C,, | %28
 F,,3 ^F,, | [B,F]>[=B,F]- [B,F]<[B,F] | [CF]>[_EF]- [EF]/[DF]D/ | [CF]>[CF]- F/(CB,/) |1 A,3 z :|2 %33
 A,3 z |] %34
V:4
|: x4 | B,,3 B,, | C,3 C,, | F,,3 C, | x4 | z/ (E/D/C/-) C2 | z/ D/C/=B,/- B,B, | C2- CC, | x4 | %9
 B,,3 B,, | C,3 C,, | F,,3 _E, | x4 | x4 | x4 |1 x4 :|2 x4 |: G,,>G, [B,CE]C,, | G,,>G, [B,CE]C,, | %19
 F,,>A, [CF]C,, | F,,/^G,/A,/D/- D2 | G,,>G, [B,CE]C,, | G,,>G, [B,CE]C,, | F,,>A, [CF]C,, | %24
 F,,/^G,/A,/C/- C_A,, | G,,>G, [B,CE]C,, | G,,>G, [B,CE]C,, | F,,>A, [CF]C,, | F,,/^G,/A,/D/- D2 | %29
 x4 | x4 | z2 C<C, |1 (F,>C, F,,)!fermata!_A,, :|2 F,>C, !^!F,, z |] %34
V:5
|: x4 | x4 | x4 | x4 | x4 | x4 | z/ (=B/A/)^G/- GG | x4 | x4 | x4 | x4 | x4 | x4 | x4 | x4 |1 %15
 x4 :|2 x4 |: x4 | x4 | x4 | x4 | x4 | x4 | x4 | x4 | x4 | x4 | x4 | x4 | x4 | x4 | x4 |1 x4 :|2 %33
 x4 |] %34

